X:1
T:Title
%%score { ( 1 3 ) | 2 }
L:1/8
M:4/4
K:Bb
V:1 treble nm="Grand Piano"
V:3 treble 
V:2 bass 
V:1
 z4 z2[Q:1/4=116] [DF]2 | [DF]2 [DF]2 [EG]2 [DF]2 | [DF]2 [DB]4 [DB]2 | c2 A2 G2 F2 | %4
 [EG]4 [DF]2 [DF]2 | [DF]2 [DF]2 [EG]2 [DF]2 | [DF]2 [DB]4 [DB]2 | c2 A2 G2 A2 | [DB]6 z2 | d8 | %10
 d8 | [Gd]2 [Gc]2 [GB]2 [Ge]2 | [^Fd]6 z2 | [Gc]2 [GB]2 [FA]2 [EG]2 | [DF]2 [FB]2 c2 e2 | d8 | %16
 d6 z2 | [Gd]2 [Gc]2 [GB]2 [EG]2 | [DF]6 z2 | [EG]2 [GB]2 [Ge]2 [Gc]2 | [FB]4 [EA]4 | %21
[M:3/4] [DB]6 |] %22
V:2
 z4 z2 [B,,B,]2 | [B,,B,]2 [B,,B,]2 [B,,B,]2 [B,,B,]2 | [B,,B,]2 [B,,F,]4 [B,,F,]2 | %3
 [F,A,E]2 [F,CE]2 [F,CE]2 [F,A,E]2 | [B,,B,]6 [B,,B,]2 | [B,,B,]2 [B,,B,]2 [B,,B,]2 [B,,B,]2 | %6
 [B,,B,]2 [B,,F,]4 [B,,F,]2 | [F,A,E]2 [F,CE]2 [F,CE]2 [F,CE]2 | [B,,B,]6 z2 | %9
 [B,,B,]3 [B,,B,] [B,,B,]2 [B,,B,]2 | [B,,B,]3 [B,,B,] [B,,B,]2 [B,,B,]2 | %11
 [E,B,]2 [E,B,]2 [E,B,]2 [C,C]2 | [D,A,]6 z2 | [E,G,]2 [E,B,]2 [E,B,]2 [E,B,]2 | %14
 [B,,B,]2 [D,B,]2 [F,A,F]4 | [B,,B,]3 [B,,B,] [B,,B,]2 [B,,B,]2 | %16
 [B,,B,]3 [B,,B,] [B,,B,]2 [B,,B,]2 | [E,B,]2 [E,B,]2 [E,B,]2 [E,B,]2 | [B,,B,]6 z2 | %19
 [E,B,]2 [E,B,]2 [E,B,]2 [E,E]2 | [F,D]4 [F,C]4 |[M:3/4] [B,,B,]6 |] %22
V:3
 x8 | x8 | x8 | x8 | x8 | x8 | x8 | x8 | x8 | F3 F F2 F2 | F3 F F2 F2 | x8 | x8 | x8 | x8 | %15
 F3 F F2 F2 | F3 F F2 [Fd]2 | x8 | x8 | x8 | x8 |[M:3/4] x6 |] %22

